X: 18168
T: Humours Of Ennistymon, The
R: jig
M: 6/8
K: Gmajor
d/c/|BGB BGB|AFA AFA|~B3 ABA|GBd ged|
~B3 BAG|ABA DFA|ded cAF|AGF G2:|d|
~f3 fed|cAG FGA|g2g gfg|agf d2e|
f/g/fd e/f/ed|cAG FGA|BGB cAF|AGF G2:|

